build/images/g1.svg

<svg width="138" height="138" viewBox="0 0 138 138" fill="none" xmlns="http://www.w3.org/2000/svg">
<circle cx="69" cy="69" r="69" fill="#76BD5E"/>
<path d="M86.0833 65.5833V38.25H51.9167V51.9167H38.25V99.75H65.5833V86.0833H72.4167V99.75H99.75V65.5833H86.0833ZM51.9167 92.9167H45.0833V86.0833H51.9167V92.9167ZM51.9167 79.25H45.0833V72.4167H51.9167V79.25ZM51.9167 65.5833H45.0833V58.75H51.9167V65.5833ZM65.5833 79.25H58.75V72.4167H65.5833V79.25ZM65.5833 65.5833H58.75V58.75H65.5833V65.5833ZM65.5833 51.9167H58.75V45.0833H65.5833V51.9167ZM79.25 79.25H72.4167V72.4167H79.25V79.25ZM79.25 65.5833H72.4167V58.75H79.25V65.5833ZM79.25 51.9167H72.4167V45.0833H79.25V51.9167ZM92.9167 92.9167H86.0833V86.0833H92.9167V92.9167ZM92.9167 79.25H86.0833V72.4167H92.9167V79.25Z" fill="white"/>
</svg>

<svg width="138" height="138" fill="none" xmlns="http://www.w3.org/2000/svg"><circle cx="69" cy="69" r="69" fill="#76BD5E"/><path d="M86.083 65.583V38.25H51.917v13.667H38.25V99.75h27.333V86.083h6.834V99.75H99.75V65.583H86.083zM51.917 92.917h-6.834v-6.834h6.834v6.834zm0-13.667h-6.834v-6.833h6.834v6.833zm0-13.667h-6.834V58.75h6.834v6.833zM65.583 79.25H58.75v-6.833h6.833v6.833zm0-13.667H58.75V58.75h6.833v6.833zm0-13.666H58.75v-6.834h6.833v6.834zM79.25 79.25h-6.833v-6.833h6.833v6.833zm0-13.667h-6.833V58.75h6.833v6.833zm0-13.666h-6.833v-6.834h6.833v6.834zm13.667 41h-6.834v-6.834h6.834v6.834zm0-13.667h-6.834v-6.833h6.834v6.833z" fill="#fff"/></svg>
